X: 39049
T: Sweat House, The
R: reel
M: 4/4
K: Edorian
EAFD E2FA|B/c/B AB dcdf|~e3f dfed|BdAF DEFD|
E2 E/E/E BEFA|B/c/B AB dcdf|~e3f dBAF|1 DAFD E2ED:|2 DAFD E2FA||
Be~e2 dfed|(3Bcd AB dAFA|Beec dcde|fdad bdfd|
Be~e2 fded|(3Bcd AF ABdf|~e3f dBAF|1 DAFD E2FA:|2 DAFD E2ED||

